src/main/resources/icons/TasksCoreIcons/icons/startTimer.svg

<svg xmlns="http://www.w3.org/2000/svg" width="16" height="16" viewBox="0 0 16 16">
  <g fill="none" fill-rule="evenodd">
    <path fill="#6E6E6E" d="M11.7929675,7 L10.2092415,7 C9.6158541,5.53408483 8.17868878,4.5 6.5,4.5 C4.290861,4.5 2.5,6.290861 2.5,8.5 C2.5,10.709139 4.290861,12.5 6.5,12.5 C7.03045022,12.5 7.53678428,12.3967464 8,12.2092415 L8,13.7929675 C7.52316821,13.9278328 7.02001188,14 6.5,14 C3.46243388,14 1,11.5375661 1,8.5 C1,5.46243388 3.46243388,3 6.5,3 C7.68983367,3 8.79142261,3.37782057 9.69133816,4.02003305 L10.6127925,3.09857866 L11.602742,4.08852814 L10.719427,4.97184317 C11.2092307,5.5569888 11.5795798,6.24554338 11.7929675,7 Z M4,1 L9,1 L9,2 L4,2 L4,1 Z M5.80000019,6 L7.20000017,6 L7.20000017,9 L5.80000019,9 L5.80000019,6 Z"/>
    <polygon fill="#59A869" points="9 7 16 11.5 9 16"/>
  </g>
</svg>

<svg xmlns="http://www.w3.org/2000/svg" width="16" height="16" viewBox="0 0 16 16"><rect id="frame" width="16" height="16" fill="none"/><g fill="none" fill-rule="evenodd"><path fill="#6E6E6E" d="M11.793 7h-1.584A4.001 4.001 0 0 0 2.5 8.5 4 4 0 0 0 8 12.21v1.583A5.5 5.5 0 1 1 9.691 4.02l.922-.921.99.99-.884.883c.49.585.86 1.274 1.074 2.028zM4 1h5v1H4V1zm1.8 5h1.4v3H5.8V6z"/><path fill="#59A869" d="M9 7l7 4.5L9 16z"/></g></svg>
